/* XPM */
/* This file can be converted to EPS by the GROMACS program xpm2ps */
/* title:   "Entropy Landscape" */
/* legend:  "TDS (kJ/mol)" */
/* x-label: "PC1" */
/* y-label: "PC2" */
/* type:    "Continuous" */
static char *gromacs_xpm[] = {
"32 32   25 1",
"A  c #000000 " /* "0" */,
"B  c #0B0B0B " /* "0.549" */,
"C  c #151515 " /* "1.1" */,
"D  c #202020 " /* "1.65" */,
"E  c #2B2B2B " /* "2.2" */,
"F  c #353535 " /* "2.75" */,
"G  c #404040 " /* "3.29" */,
"H  c #4A4A4A " /* "3.84" */,
"I  c #555555 " /* "4.39" */,
"J  c #606060 " /* "4.94" */,
"K  c #6A6A6A " /* "5.49" */,
"L  c #757575 " /* "6.04" */,
"M  c #808080 " /* "6.59" */,
"N  c #8A8A8A " /* "7.14" */,
"O  c #959595 " /* "7.69" */,
"P  c #9F9F9F " /* "8.24" */,
"Q  c #AAAAAA " /* "8.79" */,
"R  c #B5B5B5 " /* "9.33" */,
"S  c #BFBFBF " /* "9.88" */,
"T  c #CACACA " /* "10.4" */,
"U  c #D5D5D5 " /* "11" */,
"V  c #DFDFDF " /* "11.5" */,
"W  c #EAEAEA " /* "12.1" */,
"X  c #F4F4F4 " /* "12.6" */,
"Y  c #FFFFFF " /* "13.2" */,
/* x-axis:  -4.27393 -4.05909 -3.84425 -3.62941 -3.41457 -3.19973 -2.98489 -2.77005 -2.55521 -2.34037 -2.12553 -1.91069 -1.69585 -1.48101 -1.26617 -1.05133 -0.836485 -0.621645 -0.406805 -0.191965 0.0228746 0.237715 0.452555 0.667395 0.882235 1.09707 1.31191 1.52675 1.74159 1.95643 2.17127 2.38611 2.60095 */
/* y-axis:  -3.09375e-05 -2.90039e-05 -2.70703e-05 -2.51367e-05 -2.32031e-05 -2.12695e-05 -1.93359e-05 -1.74023e-05 -1.54687e-05 -1.35352e-05 -1.16016e-05 -9.66797e-06 -7.73437e-06 -5.80078e-06 -3.86719e-06 -1.93359e-06 8.0082e-13 1.93359e-06 3.86719e-06 5.80078e-06 7.73438e-06 9.66797e-06 1.16016e-05 1.35352e-05 1.54688e-05 1.74023e-05 1.93359e-05 2.12695e-05 2.32031e-05 2.51367e-05 2.70703e-05 2.90039e-05 3.09375e-05 */
"YYDDYYYYAYYYYYYDAYDADDDDADYYYYYY",
"YYYYYYYYYYYYYYYYYYYYYYYYYYYYYYYY",
"YYYYYYYYYYYYYYYYYYYYYYYYYYYYYYYY",
"YYYYYYYYYYYYYYYYYYYYYYYYYYYYYYYY",
"YYYYYYYYYYYYYYYYYYYYYYYYYYYYYYYY",
"YAIDADHFAFYYDFHGDHGJILMMKNMKHDAY",
"YYYYYYYYYYYYYYYYYYYYYYYYYYYYYYYY",
"YYYYYYYYYYYYYYYYYYYYYYYYYYYYYYYY",
"YYYYYYYYYYYYYYYYYYYYYYYYYYYYYYYY",
"YYYYYYYYYYYYYYYYYYYYYYYYYYYYYYYY",
"YHNKFGNNMIJDFGIMMMMPQRTUTSQPLGDY",
"YYYYYYYYYYYYYYYYYYYYYYYYYYYYYYYY",
"YYYYYYYYYYYYYYYYYYYYYYYYYYYYYYYY",
"YYYYYYYYYYYYYYYYYYYYYYYYYYYYYYYY",
"YYYYYYYYYYYYYYYYYYYYYYYYYYYYYYYY",
"YYYYYYYYYYYYYYYYYYYYYYYYYYYYYYYY",
"AKNMJJQPOMHDLMJMLKQSUVWWUUSQMGGY",
"YYYYYYYYYYYYYYYYYYYYYYYYYYYYYYYY",
"YYYYYYYYYYYYYYYYYYYYYYYYYYYYYYYY",
"YYYYYYYYYYYYYYYYYYYYYYYYYYYYYYYY",
"YYYYYYYYYYYYYYYYYYYYYYYYYYYYYYYY",
"YGNJFIONKDHFAGGJGNKNQRSSSQSNFAYY",
"YYYYYYYYYYYYYYYYYYYYYYYYYYYYYYYY",
"YYYYYYYYYYYYYYYYYYYYYYYYYYYYYYYY",
"YYYYYYYYYYYYYYYYYYYYYYYYYYYYYYYY",
"YYYYYYYYYYYYYYYYYYYYYYYYYYYYYYYY",
"AGFFADADADAFAFYGYYGFYGDKMKKGDYYA",
"YYYYYYYYYYYYYYYYYYYYYYYYYYYYYYYY",
"YYYYYYYYYYYYYYYYYYYYYYYYYYYYYYYY",
"YYYYYYYYYYYYYYYYYYYYYYYYYYYYYYYY",
"YYYYYYYYYYYYYYYYYYYYYYYYYYYYYYYY",
"YYDAYYYYYYYYAYYYYYYYYYYDYAAAYYYY"
