/* XPM */
/* This file can be converted to EPS by the GROMACS program xpm2ps */
/* title:   "Probability Distribution" */
/* legend:  "" */
/* x-label: "PC1" */
/* y-label: "PC2" */
/* type:    "Continuous" */
static char *gromacs_xpm[] = {
"32 32   25 1",
"A  c #000000 " /* "0" */,
"B  c #0B0B0B " /* "0.00227" */,
"C  c #151515 " /* "0.00453" */,
"D  c #202020 " /* "0.0068" */,
"E  c #2B2B2B " /* "0.00906" */,
"F  c #353535 " /* "0.0113" */,
"G  c #404040 " /* "0.0136" */,
"H  c #4A4A4A " /* "0.0159" */,
"I  c #555555 " /* "0.0181" */,
"J  c #606060 " /* "0.0204" */,
"K  c #6A6A6A " /* "0.0227" */,
"L  c #757575 " /* "0.0249" */,
"M  c #808080 " /* "0.0272" */,
"N  c #8A8A8A " /* "0.0295" */,
"O  c #959595 " /* "0.0317" */,
"P  c #9F9F9F " /* "0.034" */,
"Q  c #AAAAAA " /* "0.0363" */,
"R  c #B5B5B5 " /* "0.0385" */,
"S  c #BFBFBF " /* "0.0408" */,
"T  c #CACACA " /* "0.043" */,
"U  c #D5D5D5 " /* "0.0453" */,
"V  c #DFDFDF " /* "0.0476" */,
"W  c #EAEAEA " /* "0.0498" */,
"X  c #F4F4F4 " /* "0.0521" */,
"Y  c #FFFFFF " /* "0.0544" */,
/* x-axis:  -4.27393 -4.05909 -3.84425 -3.62941 -3.41457 -3.19973 -2.98489 -2.77005 -2.55521 -2.34037 -2.12553 -1.91069 -1.69585 -1.48101 -1.26617 -1.05133 -0.836485 -0.621645 -0.406805 -0.191965 0.0228746 0.237715 0.452555 0.667395 0.882235 1.09707 1.31191 1.52675 1.74159 1.95643 2.17127 2.38611 2.60095 */
/* y-axis:  -3.09375e-05 -2.90039e-05 -2.70703e-05 -2.51367e-05 -2.32031e-05 -2.12695e-05 -1.93359e-05 -1.74023e-05 -1.54687e-05 -1.35352e-05 -1.16016e-05 -9.66797e-06 -7.73437e-06 -5.80078e-06 -3.86719e-06 -1.93359e-06 8.0082e-13 1.93359e-06 3.86719e-06 5.80078e-06 7.73438e-06 9.66797e-06 1.16016e-05 1.35352e-05 1.54688e-05 1.74023e-05 1.93359e-05 2.12695e-05 2.32031e-05 2.51367e-05 2.70703e-05 2.90039e-05 3.09375e-05 */
"AAAAAAAAAAAAAAAAAAAAAAAAAAAAAAAA",
"AAAAAAAAAAAAAAAAAAAAAAAAAAAAAAAA",
"AAAAAAAAAAAAAAAAAAAAAAAAAAAAAAAA",
"AAAAAAAAAAAAAAAAAAAAAAAAAAAAAAAA",
"AAAAAAAAAAAAAAAAAAAAAAAAAAAAAAAA",
"AABAAABBABAAABBBABBBBCCCCDDCBAAA",
"AAAAAAAAAAAAAAAAAAAAAAAAAAAAAAAA",
"AAAAAAAAAAAAAAAAAAAAAAAAAAAAAAAA",
"AAAAAAAAAAAAAAAAAAAAAAAAAAAAAAAA",
"AAAAAAAAAAAAAAAAAAAAAAAAAAAAAAAA",
"ABDCBBDDCBBABBBCDDCFHILPMLGFCBAA",
"AAAAAAAAAAAAAAAAAAAAAAAAAAAAAAAA",
"AAAAAAAAAAAAAAAAAAAAAAAAAAAAAAAA",
"AAAAAAAAAAAAAAAAAAAAAAAAAAAAAAAA",
"AAAAAAAAAAAAAAAAAAAAAAAAAAAAAAAA",
"AAAAAAAAAAAAAAAAAAAAAAAAAAAAAAAA",
"ACDCBBGFEDBACCBCCCGKOUXYQPKHCBBA",
"AAAAAAAAAAAAAAAAAAAAAAAAAAAAAAAA",
"AAAAAAAAAAAAAAAAAAAAAAAAAAAAAAAA",
"AAAAAAAAAAAAAAAAAAAAAAAAAAAAAAAA",
"AAAAAAAAAAAAAAAAAAAAAAAAAAAAAAAA",
"ABDBBBEDCABBABBBBDCDGIKJJGJDBAAA",
"AAAAAAAAAAAAAAAAAAAAAAAAAAAAAAAA",
"AAAAAAAAAAAAAAAAAAAAAAAAAAAAAAAA",
"AAAAAAAAAAAAAAAAAAAAAAAAAAAAAAAA",
"AAAAAAAAAAAAAAAAAAAAAAAAAAAAAAAA",
"ABBBAAAAAAABABABAABBABACCCCBAAAA",
"AAAAAAAAAAAAAAAAAAAAAAAAAAAAAAAA",
"AAAAAAAAAAAAAAAAAAAAAAAAAAAAAAAA",
"AAAAAAAAAAAAAAAAAAAAAAAAAAAAAAAA",
"AAAAAAAAAAAAAAAAAAAAAAAAAAAAAAAA",
"AAAAAAAAAAAAAAAAAAAAAAAAAAAAAAAA"
