/* XPM */
/* This file can be converted to EPS by the GROMACS program xpm2ps */
/* title:   "Enthalpy Landscape" */
/* legend:  "H (kJ/mol)" */
/* x-label: "PC1" */
/* y-label: "PC2" */
/* type:    "Continuous" */
static char *gromacs_xpm[] = {
"32 32   25 1",
"A  c #000000 " /* "0" */,
"B  c #0B0B0B " /* "0.0417" */,
"C  c #151515 " /* "0.0833" */,
"D  c #202020 " /* "0.125" */,
"E  c #2B2B2B " /* "0.167" */,
"F  c #353535 " /* "0.208" */,
"G  c #404040 " /* "0.25" */,
"H  c #4A4A4A " /* "0.292" */,
"I  c #555555 " /* "0.333" */,
"J  c #606060 " /* "0.375" */,
"K  c #6A6A6A " /* "0.417" */,
"L  c #757575 " /* "0.458" */,
"M  c #808080 " /* "0.5" */,
"N  c #8A8A8A " /* "0.542" */,
"O  c #959595 " /* "0.583" */,
"P  c #9F9F9F " /* "0.625" */,
"Q  c #AAAAAA " /* "0.667" */,
"R  c #B5B5B5 " /* "0.708" */,
"S  c #BFBFBF " /* "0.75" */,
"T  c #CACACA " /* "0.792" */,
"U  c #D5D5D5 " /* "0.833" */,
"V  c #DFDFDF " /* "0.875" */,
"W  c #EAEAEA " /* "0.917" */,
"X  c #F4F4F4 " /* "0.958" */,
"Y  c #FFFFFF " /* "1" */,
/* x-axis:  -4.2269 -3.94071 -3.65451 -3.36832 -3.08212 -2.79593 -2.50973 -2.22354 -1.93734 -1.65115 -1.36495 -1.07876 -0.79256 -0.506365 -0.22017 0.0660249 0.35222 0.638415 0.92461 1.21081 1.497 1.7832 2.06939 2.35559 2.64178 2.92798 3.21417 3.50037 3.78656 4.07276 4.35895 4.64515 4.93134 */
/* y-axis:  -8.20312e-05 -7.78418e-05 -7.36523e-05 -6.94629e-05 -6.52734e-05 -6.1084e-05 -5.68945e-05 -5.27051e-05 -4.85156e-05 -4.43262e-05 -4.01367e-05 -3.59473e-05 -3.17578e-05 -2.75684e-05 -2.33789e-05 -1.91895e-05 -1.5e-05 -1.08105e-05 -6.62109e-06 -2.43164e-06 1.75781e-06 5.94727e-06 1.01367e-05 1.43262e-05 1.85156e-05 2.27051e-05 2.68945e-05 3.1084e-05 3.52734e-05 3.94629e-05 4.36523e-05 4.78418e-05 5.20312e-05 */
"YYYYYYYAYYYYYYYYYYYYYYYYYYYYYYYY",
"YYYYYYYYYYYYYYYYYYYYYYYYYYYYYYYY",
"YYYYYAYAAAYAAAYAYYYYAYYYYYYYAYYY",
"YYYYYYYYYYYYYYYYYYYYYYYYYYYYYYYY",
"YYYYYYYYYYYYYYYYYYYYYYYYYYYYYYYY",
"YYAYAAAAAAAAAAAAAAYYAAYYYAYYAAYY",
"YYYYYYYYYYYYYYYYYYYYYYYYYYYYYYYY",
"AYYAAAAAAAAAAAAAAAAAAAAAAYYAAAAA",
"YYYYYYYYYYYYYYYYYYYYYYYYYYYYYYYY",
"YYYYYYYYYYYYYYYYYYYYYYYYYYYYYYYY",
"AAAAAAAAAAAAAAAAAAAAAAAAAYAAAAAA",
"YYYYYYYYYYYYYYYYYYYYYYYYYYYYYYYY",
"AAAAAAAAAAAAAAAAAAAAAAAAAAAAAAAA",
"YYYYYYYYYYYYYYYYYYYYYYYYYYYYYYYY",
"YAAAAAAAAAAAAAAAAAAAAAAAAAAAAAAY",
"YYYYYYYYYYYYYYYYYYYYYYYYYYYYYYYY",
"YYYYYYYYYYYYYYYYYYYYYYYYYYYYYYYY",
"YAYAAAAAAAAAAAAAAAAAAAAAAAAAAAAA",
"YYYYYYYYYYYYYYYYYYYYYYYYYYYYYYYY",
"AYAAAAAAAAAAAAAAAAAAAAAAAAAYAAAY",
"YYYYYYYYYYYYYYYYYYYYYYYYYYYYYYYY",
"YYYAAAAAAAAAAAAAAAAAAAAAAAYYAYYY",
"YYYYYYYYYYYYYYYYYYYYYYYYYYYYYYYY",
"YYYYYYYYYYYYYYYYYYYYYYYYYYYYYYYY",
"YYYYYAAYAYAAYYAAAYAYYYYYYAAYAYYY",
"YYYYYYYYYYYYYYYYYYYYYYYYYYYYYYYY",
"YYYYAAAAYYYYYYYAYYYYYYYYYYYYYYYY",
"YYYYYYYYYYYYYYYYYYYYYYYYYYYYYYYY",
"YYYYYYYYYYYYYYYYYYYYYYYYYYYYYYYY",
"YYYYYYYYYYYYYYYYYYYYYYYYYYYYYYYY",
"YYYYYYYYYYYYYYYYYYYYYYYYYYYYYYYY",
"YYYYYYYYYAYYYYYYYYYYYYYYYYYYYYYY"
